img/mascot.svg

<svg width="302" height="152" xmlns="http://www.w3.org/2000/svg">
 <!-- Generator: Sketch 47.1 (45422) - http://www.bohemiancoding.com/sketch -->
 <title>logo-sauvc</title>
 <desc>Created with Sketch.</desc>

 <g>
  <title>background</title>
  <rect fill="none" id="canvas_background" height="402" width="582" y="-1" x="-1"/>
 </g>
 <g>
  <title>Layer 1</title>
  <g fill-rule="evenodd" fill="none" id="Page-1">
   <g id="logo-sauvc">
    <rect rx="50" height="100" width="302" y="28" fill="#F8C86C" id="Rectangle"/>
    <path fill="#1C455D" id="SAUVC" d="m58.68,95.72c-2.48001,0 -5.02999,-0.45 -7.65,-1.35c-2.62001,-0.9 -4.98999,-2.30999 -7.11,-4.23l5.88,-7.08c1.40001,1.12001 2.90999,2.03 4.53,2.73c1.62001,0.7 3.14999,1.05 4.59,1.05c1.56001,0 2.69,-0.24 3.39,-0.72c0.7,-0.48 1.05,-1.16 1.05,-2.04c0,-0.48 -0.12,-0.88 -0.36,-1.2c-0.24,-0.32 -0.59,-0.62 -1.05,-0.9c-0.46,-0.28 -1.01,-0.55 -1.65,-0.81c-0.64,-0.26 -1.38,-0.55 -2.22,-0.87l-4.86,-2.04c-1.04001,-0.4 -2.04,-0.93 -3,-1.59c-0.96,-0.66 -1.8,-1.44 -2.52,-2.34c-0.72,-0.9 -1.29,-1.92999 -1.71,-3.09c-0.42,-1.16001 -0.63,-2.43999 -0.63,-3.84c0,-1.68001 0.36,-3.24999 1.08,-4.71c0.72,-1.46001 1.71999,-2.73999 3,-3.84c1.28001,-1.10001 2.80999,-1.97 4.59,-2.61c1.78001,-0.64 3.72999,-0.96 5.85,-0.96c2.24001,0 4.50999,0.42 6.81,1.26c2.30001,0.84 4.34999,2.15999 6.15,3.96l-5.16,6.48c-1.32001,-0.92 -2.58999,-1.62 -3.81,-2.1c-1.22001,-0.48 -2.54999,-0.72 -3.99,-0.72c-1.28001,0 -2.28,0.22 -3,0.66c-0.72,0.44 -1.08,1.1 -1.08,1.98c0,0.92 0.50999,1.63 1.53,2.13c1.02001,0.5 2.42999,1.09 4.23,1.77l4.74,1.86c2.44001,0.96 4.31999,2.29999 5.64,4.02c1.32001,1.72001 1.98,3.93999 1.98,6.66c0,1.64001 -0.34,3.21999 -1.02,4.74c-0.68,1.52001 -1.66999,2.84999 -2.97,3.99c-1.30001,1.14001 -2.88999,2.05 -4.77,2.73c-1.88001,0.68 -4.03999,1.02 -6.48,1.02zm41.56,-19.68l-0.66,2.7l7.2,0l-0.66,-2.7c-0.48,-1.88001 -0.96,-3.91999 -1.44,-6.12c-0.48,-2.20001 -0.96,-4.27999 -1.44,-6.24l-0.24,0c-0.44,2.00001 -0.89,4.08999 -1.35,6.27c-0.46,2.18001 -0.93,4.20999 -1.41,6.09zm-15,18.96l11.88,-39l12.48,0l11.88,39l-10.92,0l-1.92,-8.28l-10.92,0l-1.92,8.28l-10.56,0zm65.32,0.72c-5.48003,0 -9.54999,-1.58998 -12.21,-4.77c-2.66001,-3.18002 -3.99,-8.10997 -3.99,-14.79l0,-20.16l10.32,0l0,21.36c0,3.48002 0.46999,5.92999 1.41,7.35c0.94,1.42001 2.42999,2.13 4.47,2.13c2.04001,0 3.54999,-0.70999 4.53,-2.13c0.98001,-1.42001 1.47,-3.86998 1.47,-7.35l0,-21.36l9.96,0l0,20.16c0,6.68003 -1.29999,11.60998 -3.9,14.79c-2.60001,3.18002 -6.61997,4.77 -12.06,4.77zm40.36,-0.72l-11.52,-39l10.92,0l4.08,17.04c0.56,2.08001 1.04,4.12999 1.44,6.15c0.4,2.02001 0.88,4.08999 1.44,6.21l0.24,0c0.56,-2.12001 1.05,-4.18999 1.47,-6.21c0.42,-2.02001 0.89,-4.06999 1.41,-6.15l3.96,-17.04l10.56,0l-11.52,39l-12.48,0zm54.04,0.72c-2.48001,0 -4.84999,-0.41 -7.11,-1.23c-2.26001,-0.82 -4.23999,-2.05999 -5.94,-3.72c-1.70001,-1.66001 -3.04999,-3.73999 -4.05,-6.24c-1.00001,-2.50001 -1.5,-5.40998 -1.5,-8.73c0,-3.28002 0.52,-6.18999 1.56,-8.73c1.04,-2.54001 2.42999,-4.67999 4.17,-6.42c1.74001,-1.74001 3.73999,-3.07 6,-3.99c2.26001,-0.92 4.62999,-1.38 7.11,-1.38c2.60001,0 4.91999,0.50999 6.96,1.53c2.04001,1.02001 3.75999,2.22999 5.16,3.63l-5.4,6.6c-0.96001,-0.84 -1.95,-1.53 -2.97,-2.07c-1.02001,-0.54 -2.18999,-0.81 -3.51,-0.81c-1.16001,0 -2.24999,0.26 -3.27,0.78c-1.02001,0.52 -1.92,1.26 -2.7,2.22c-0.78,0.96 -1.4,2.13999 -1.86,3.54c-0.46,1.40001 -0.69,2.97999 -0.69,4.74c0,3.68002 0.76999,6.49999 2.31,8.46c1.54001,1.96001 3.56999,2.94 6.09,2.94c1.52001,0 2.86999,-0.33 4.05,-0.99c1.18001,-0.66 2.19,-1.45 3.03,-2.37l5.4,6.48c-1.68001,1.92001 -3.60999,3.36 -5.79,4.32c-2.18001,0.96 -4.52999,1.44 -7.05,1.44z"/>
    <path fill="#F59A63" id="Fill-1" d="m302,77.979c0,-13.471 -5.337,-25.688 -14,-34.679l0,69.358c8.663,-8.991 14,-21.208 14,-34.679"/>
    <path fill="#F59A63" id="Fill-1-Copy" d="m0,77.979c0,-13.471 5.337,-25.688 14,-34.679l0,69.358c-8.663,-8.991 -14,-21.208 -14,-34.679"/>
    <path fill="#F59A63" id="Rectangle-2" d="m111,0l80,0l0,0c5.52285,0 10,4.47715 10,10l0,18l-100,0l0,-18l0,0c0,-5.52285 4.47715,-10 10,-10z"/>
    <rect height="40" width="20" y="112" x="268" fill="#1C455D" id="Rectangle-4"/>
    <path fill="#1C455D" id="Rectangle-3" d="m194,112l50.34676,0l0,0c6.89136,0 13.57261,2.37256 18.92056,6.71884l16.34206,13.28116l-16.34206,13.28116l0,0c-5.34795,4.34627 -12.0292,6.71884 -18.92056,6.71884l-50.34676,0l0,0c-11.04569,0 -20,-8.95431 -20,-20l0,0l0,0c0,-11.04569 8.95431,-20 20,-20z"/>
   </g>
  </g>
  <g id="textToPathGroup">
   <path fill="white" d="m194.73332,140l0,-2.5c1,-0.89999 1.90001,-1.8 2.80001,-2.60001c0.8,-0.79998 1.5,-1.5 2.1,-2.19999c0.7,-0.7 1.2,-1.4 1.5,-2c0.4,-0.7 0.59999,-1.30001 0.59999,-1.80001c0,-0.79998 -0.19999,-1.29998 -0.59999,-1.69999c-0.40001,-0.30001 -0.90001,-0.5 -1.5,-0.5c-0.5,0 -1,0.1 -1.40001,0.5c-0.5,0.3 -0.89999,0.6 -1.29998,1l-2.40001,-2.3c0.5,-0.5 0.90001,-0.9 1.3,-1.2c0.39999,-0.4 0.89999,-0.6 1.3,-0.9c0.5,-0.2 1,-0.3 1.5,-0.4c0.5,-0.1 1,-0.2 1.59999,-0.2c0.90001,0 1.60001,0.1 2.30001,0.4c0.69999,0.3 1.3,0.6 1.8,1.1c0.5,0.5 0.89999,1 1.2,1.69999c0.3,0.70002 0.40001,1.40001 0.40001,2.20002c0,0.69999 -0.10001,1.29998 -0.40001,2c-0.30001,0.69999 -0.7,1.39999 -1.09999,2.09999c-0.5,0.6 -1,1.3 -1.5,1.90001c-0.60001,0.69999 -1.20002,1.29998 -1.70002,1.89999c0.40001,-0.10001 0.90001,-0.10001 1.40001,-0.2c0.5,0 1,0 1.30001,0l2.79998,0l0,3.7l-12,0zm20.20002,0.3c-1,0 -1.80001,-0.19999 -2.5,-0.5c-0.80001,-0.40001 -1.40001,-1 -2,-1.69999c-0.5,-0.70002 -0.90001,-1.60001 -1.20002,-2.70002c-0.29998,-1.09999 -0.5,-2.29998 -0.5,-3.69999c0,-1.4 0.20002,-2.7 0.5,-3.7c0.30001,-1.10001 0.70002,-2 1.20002,-2.7c0.59999,-0.7 1.19999,-1.2 2,-1.6c0.69999,-0.3 1.5,-0.5 2.5,-0.5c0.89999,0 1.69999,0.2 2.39999,0.5c0.8,0.4 1.39999,0.9 2,1.6c0.5,0.7 1,1.59999 1.3,2.7c0.2,1 0.4,2.3 0.4,3.7c0,1.40001 -0.2,2.6 -0.4,3.69999c-0.3,1.10001 -0.8,2 -1.3,2.70002c-0.60001,0.69999 -1.2,1.29998 -2,1.69999c-0.7,0.30001 -1.5,0.5 -2.39999,0.5zm0,-3.40001c0.19999,0 0.5,-0.09999 0.69999,-0.19999c0.2,-0.09999 0.4,-0.4 0.59999,-0.80001c0.20002,-0.39999 0.30001,-0.89999 0.40001,-1.59999c0.09999,-0.6 0.2,-1.5 0.2,-2.6c0,-1.09999 -0.10001,-2 -0.2,-2.59999c-0.1,-0.70002 -0.19999,-1.20002 -0.40001,-1.60001c-0.19999,-0.3 -0.39999,-0.60001 -0.59999,-0.7c-0.19999,-0.1 -0.5,-0.19999 -0.69999,-0.19999c-0.30001,0 -0.5,0.09999 -0.80001,0.19999c-0.19999,0.09999 -0.40001,0.4 -0.6,0.7c-0.2,0.39999 -0.30001,0.89999 -0.4,1.60001c-0.1,0.59999 -0.19999,1.5 -0.19999,2.59999c0,1.1 0.09999,2 0.19999,2.6c0.09999,0.7 0.2,1.2 0.4,1.59999c0.19999,0.40001 0.40001,0.70002 0.6,0.80001c0.30001,0.1 0.5,0.19999 0.80001,0.19999z" id="textToPath-0"/>
   <path fill="white" d="m222.733319,139.833333l0,-2.5c1,-0.89999 1.90001,-1.8 2.80001,-2.60001c0.8,-0.79998 1.5,-1.5 2.1,-2.19999c0.7,-0.7 1.2,-1.4 1.5,-2c0.4,-0.7 0.59999,-1.30001 0.59999,-1.80001c0,-0.79998 -0.19999,-1.29998 -0.59999,-1.69999c-0.40001,-0.30001 -0.90001,-0.5 -1.5,-0.5c-0.5,0 -1,0.1 -1.40001,0.5c-0.5,0.3 -0.89999,0.6 -1.29998,1l-2.40001,-2.3c0.5,-0.5 0.90001,-0.9 1.3,-1.2c0.39999,-0.4 0.89999,-0.6 1.3,-0.9c0.5,-0.2 1,-0.3 1.5,-0.4c0.5,-0.1 1,-0.2 1.59999,-0.2c0.90001,0 1.60001,0.1 2.30001,0.4c0.69999,0.3 1.3,0.6 1.8,1.1c0.5,0.5 0.89999,1 1.2,1.69999c0.3,0.70002 0.40001,1.40001 0.40001,2.20002c0,0.69999 -0.10001,1.29998 -0.40001,2c-0.30001,0.69999 -0.7,1.39999 -1.09999,2.09999c-0.5,0.6 -1,1.3 -1.5,1.90001c-0.60001,0.69999 -1.20002,1.29998 -1.70002,1.89999c0.40001,-0.10001 0.90001,-0.10001 1.40001,-0.2c0.5,0 1,0 1.30001,0l2.79998,0l0,3.7l-12,0zm20.20002,0.3c-1,0 -1.80001,-0.19999 -2.5,-0.5c-0.80001,-0.40001 -1.40001,-1 -2,-1.69999c-0.5,-0.70002 -0.90001,-1.60001 -1.20002,-2.70002c-0.29998,-1.09999 -0.5,-2.29998 -0.5,-3.69999c0,-1.4 0.20002,-2.7 0.5,-3.7c0.30001,-1.10001 0.70002,-2 1.20002,-2.7c0.59999,-0.7 1.19999,-1.2 2,-1.6c0.69999,-0.3 1.5,-0.5 2.5,-0.5c0.89999,0 1.69999,0.2 2.39999,0.5c0.8,0.4 1.39999,0.9 2,1.6c0.5,0.7 1,1.59999 1.3,2.7c0.2,1 0.4,2.3 0.4,3.7c0,1.40001 -0.2,2.6 -0.4,3.69999c-0.3,1.10001 -0.8,2 -1.3,2.70002c-0.60001,0.69999 -1.2,1.29998 -2,1.69999c-0.7,0.30001 -1.5,0.5 -2.39999,0.5zm0,-3.40001c0.19999,0 0.5,-0.09999 0.69999,-0.19999c0.2,-0.09999 0.4,-0.4 0.59999,-0.80001c0.20002,-0.39999 0.30001,-0.89999 0.40001,-1.59999c0.09999,-0.6 0.2,-1.5 0.2,-2.6c0,-1.09999 -0.10001,-2 -0.2,-2.59999c-0.1,-0.70002 -0.19999,-1.20002 -0.40001,-1.60001c-0.19999,-0.3 -0.39999,-0.60001 -0.59999,-0.7c-0.19999,-0.1 -0.5,-0.19999 -0.69999,-0.19999c-0.30001,0 -0.5,0.09999 -0.80001,0.19999c-0.19999,0.09999 -0.40001,0.4 -0.6,0.7c-0.2,0.39999 -0.30001,0.89999 -0.4,1.60001c-0.1,0.59999 -0.19999,1.5 -0.19999,2.59999c0,1.1 0.09999,2 0.19999,2.6c0.09999,0.7 0.2,1.2 0.4,1.59999c0.19999,0.40001 0.40001,0.70002 0.6,0.80001c0.30001,0.1 0.5,0.19999 0.80001,0.19999z" id="svg_3"/>
   <path fill="white" d="m194.73332,140l0,-2.5c1,-0.89999 1.90001,-1.8 2.80001,-2.60001c0.8,-0.79998 1.5,-1.5 2.1,-2.19999c0.7,-0.7 1.2,-1.4 1.5,-2c0.4,-0.7 0.59999,-1.30001 0.59999,-1.80001c0,-0.79998 -0.19999,-1.29998 -0.59999,-1.69999c-0.40001,-0.30001 -0.90001,-0.5 -1.5,-0.5c-0.5,0 -1,0.1 -1.40001,0.5c-0.5,0.3 -0.89999,0.6 -1.29998,1l-2.40001,-2.3c0.5,-0.5 0.90001,-0.9 1.3,-1.2c0.39999,-0.4 0.89999,-0.6 1.3,-0.9c0.5,-0.2 1,-0.3 1.5,-0.4c0.5,-0.1 1,-0.2 1.59999,-0.2c0.90001,0 1.60001,0.1 2.30001,0.4c0.69999,0.3 1.3,0.6 1.8,1.1c0.5,0.5 0.89999,1 1.2,1.69999c0.3,0.70002 0.40001,1.40001 0.40001,2.20002c0,0.69999 -0.10001,1.29998 -0.40001,2c-0.30001,0.69999 -0.7,1.39999 -1.09999,2.09999c-0.5,0.6 -1,1.3 -1.5,1.90001c-0.60001,0.69999 -1.20002,1.29998 -1.70002,1.89999c0.40001,-0.10001 0.90001,-0.10001 1.40001,-0.2c0.5,0 1,0 1.30001,0l2.79998,0l0,3.7l-12,0zm20.20002,0.3c-1,0 -1.80001,-0.19999 -2.5,-0.5c-0.80001,-0.40001 -1.40001,-1 -2,-1.69999c-0.5,-0.70002 -0.90001,-1.60001 -1.20002,-2.70002c-0.29998,-1.09999 -0.5,-2.29998 -0.5,-3.69999c0,-1.4 0.20002,-2.7 0.5,-3.7c0.30001,-1.10001 0.70002,-2 1.20002,-2.7c0.59999,-0.7 1.19999,-1.2 2,-1.6c0.69999,-0.3 1.5,-0.5 2.5,-0.5c0.89999,0 1.69999,0.2 2.39999,0.5c0.8,0.4 1.39999,0.9 2,1.6c0.5,0.7 1,1.59999 1.3,2.7c0.2,1 0.4,2.3 0.4,3.7c0,1.40001 -0.2,2.6 -0.4,3.69999c-0.3,1.10001 -0.8,2 -1.3,2.70002c-0.60001,0.69999 -1.2,1.29998 -2,1.69999c-0.7,0.30001 -1.5,0.5 -2.39999,0.5zm0,-3.40001c0.19999,0 0.5,-0.09999 0.69999,-0.19999c0.2,-0.09999 0.4,-0.4 0.59999,-0.80001c0.20002,-0.39999 0.30001,-0.89999 0.40001,-1.59999c0.09999,-0.6 0.2,-1.5 0.2,-2.6c0,-1.09999 -0.10001,-2 -0.2,-2.59999c-0.1,-0.70002 -0.19999,-1.20002 -0.40001,-1.60001c-0.19999,-0.3 -0.39999,-0.60001 -0.59999,-0.7c-0.19999,-0.1 -0.5,-0.19999 -0.69999,-0.19999c-0.30001,0 -0.5,0.09999 -0.80001,0.19999c-0.19999,0.09999 -0.40001,0.4 -0.6,0.7c-0.2,0.39999 -0.30001,0.89999 -0.4,1.60001c-0.1,0.59999 -0.19999,1.5 -0.19999,2.59999c0,1.1 0.09999,2 0.19999,2.6c0.09999,0.7 0.2,1.2 0.4,1.59999c0.19999,0.40001 0.40001,0.70002 0.6,0.80001c0.30001,0.1 0.5,0.19999 0.80001,0.19999z" id="svg_4"/>
  </g>
 </g>
</svg>

<?xml version="1.0" encoding="UTF-8"?>
<svg width="302px" height="152px" viewBox="0 0 302 152" version="1.1" xmlns="http://www.w3.org/2000/svg" xmlns:xlink="http://www.w3.org/1999/xlink">
    <title>mascot 2</title>
    <g id="Page-1" stroke="none" stroke-width="1" fill="none" fill-rule="evenodd">
        <g id="mascot" transform="translate(-1.000000, -1.000000)">
            <g id="background">
                <rect id="canvas_background" x="0" y="0" width="582" height="402"></rect>
            </g>
            <g id="Layer-1" transform="translate(1.000000, 1.000000)" fill-rule="nonzero">
                <g id="submarine">
                    <rect id="Rectangle" fill="#F8C86C" x="0" y="28" width="302" height="100" rx="50"></rect>
                    <path d="M58.68,95.72 C56.19999,95.72 53.65001,95.27 51.03,94.37 C48.40999,93.47 46.04001,92.06001 43.92,90.14 L49.8,83.06 C51.20001,84.18001 52.70999,85.09 54.33,85.79 C55.95001,86.49 57.47999,86.84 58.92,86.84 C60.48001,86.84 61.61,86.6 62.31,86.12 C63.01,85.64 63.36,84.96 63.36,84.08 C63.36,83.6 63.24,83.2 63,82.88 C62.76,82.56 62.41,82.26 61.95,81.98 C61.49,81.7 60.94,81.43 60.3,81.17 C59.66,80.91 58.92,80.62 58.08,80.3 L53.22,78.26 C52.17999,77.86 51.18,77.33 50.22,76.67 C49.26,76.01 48.42,75.23 47.7,74.33 C46.98,73.43 46.41,72.40001 45.99,71.24 C45.57,70.07999 45.36,68.80001 45.36,67.4 C45.36,65.71999 45.72,64.15001 46.44,62.69 C47.16,61.22999 48.15999,59.95001 49.44,58.85 C50.72001,57.74999 52.24999,56.88 54.03,56.24 C55.81001,55.6 57.75999,55.28 59.88,55.28 C62.12001,55.28 64.38999,55.7 66.69,56.54 C68.99001,57.38 71.03999,58.69999 72.84,60.5 L67.68,66.98 C66.35999,66.06 65.09001,65.36 63.87,64.88 C62.64999,64.4 61.32001,64.16 59.88,64.16 C58.59999,64.16 57.6,64.38 56.88,64.82 C56.16,65.26 55.8,65.92 55.8,66.8 C55.8,67.72 56.30999,68.43 57.33,68.93 C58.35001,69.43 59.75999,70.02 61.56,70.7 L66.3,72.56 C68.74001,73.52 70.61999,74.85999 71.94,76.58 C73.26001,78.30001 73.92,80.51999 73.92,83.24 C73.92,84.88001 73.58,86.45999 72.9,87.98 C72.22,89.50001 71.23001,90.82999 69.93,91.97 C68.62999,93.11001 67.04001,94.02 65.16,94.7 C63.27999,95.38 61.12001,95.72 58.68,95.72 L58.68,95.72 Z M100.24,76.04 L99.58,78.74 L106.78,78.74 L106.12,76.04 C105.64,74.15999 105.16,72.12001 104.68,69.92 C104.2,67.71999 103.72,65.64001 103.24,63.68 L103,63.68 C102.56,65.68 102.11,67.76999 101.65,69.95 C101.19,72.13001 100.72,74.15999 100.24,76.04 L100.24,76.04 Z M85.24,95 L97.12,56 L109.6,56 L121.48,95 L110.56,95 L108.64,86.72 L97.72,86.72 L95.8,95 L85.24,95 L85.24,95 Z M150.56,95.72 C145.07997,95.72 141.01001,94.13002 138.35,90.95 C135.68999,87.76998 134.36,82.84003 134.36,76.16 L134.36,56 L144.68,56 L144.68,77.36 C144.68,80.84002 145.14999,83.28999 146.09,84.71 C147.03,86.13001 148.51999,86.84 150.56,86.84 C152.60001,86.84 154.10999,86.13001 155.09,84.71 C156.07001,83.28999 156.56,80.84002 156.56,77.36 L156.56,56 L166.52,56 L166.52,76.16 C166.52,82.84003 165.22001,87.76998 162.62,90.95 C160.01999,94.13002 156.00003,95.72 150.56,95.72 L150.56,95.72 Z M190.92,95 L179.4,56 L190.32,56 L194.4,73.04 C194.96,75.12001 195.44,77.16999 195.84,79.19 C196.24,81.21001 196.72,83.27999 197.28,85.4 L197.52,85.4 C198.08,83.27999 198.57,81.21001 198.99,79.19 C199.41,77.16999 199.88,75.12001 200.4,73.04 L204.36,56 L214.92,56 L203.4,95 L190.92,95 Z M244.96,95.72 C242.47999,95.72 240.11001,95.31 237.85,94.49 C235.58999,93.67 233.61001,92.43001 231.91,90.77 C230.20999,89.10999 228.86,87.03001 227.86,84.53 C226.85999,82.02999 226.36,79.12002 226.36,75.8 C226.36,72.51998 226.88,69.61001 227.92,67.07 C228.96,64.52999 230.34999,62.39001 232.09,60.65 C233.83001,58.90999 235.82999,57.58 238.09,56.66 C240.35001,55.74 242.71999,55.28 245.2,55.28 C247.80001,55.28 250.11999,55.78999 252.16,56.81 C254.20001,57.83001 255.91999,59.03999 257.32,60.44 L251.92,67.04 C250.95999,66.2 249.97,65.51 248.95,64.97 C247.92999,64.43 246.76001,64.16 245.44,64.16 C244.27999,64.16 243.19001,64.42 242.17,64.94 C241.14999,65.46 240.25,66.2 239.47,67.16 C238.69,68.12 238.07,69.29999 237.61,70.7 C237.15,72.10001 236.92,73.67999 236.92,75.44 C236.92,79.12002 237.68999,81.93999 239.23,83.9 C240.77001,85.86001 242.79999,86.84 245.32,86.84 C246.84001,86.84 248.18999,86.51 249.37,85.85 C250.55001,85.19 251.56,84.4 252.4,83.48 L257.8,89.96 C256.11999,91.88001 254.19001,93.32 252.01,94.28 C249.82999,95.24 247.48001,95.72 244.96,95.72 Z" id="SAUVC-text" fill="#1C455D"></path>
                    <path d="M302,77.979 C302,64.508 296.663,52.291 288,43.3 L288,112.658 C296.663,103.667 302,91.45 302,77.979" id="Fill-1" fill="#F59A63"></path>
                    <path d="M0,77.979 C0,64.508 5.337,52.291 14,43.3 L14,112.658 C5.337,103.667 0,91.45 0,77.979" id="Fill-1-Copy" fill="#F59A63"></path>
                    <path d="M111,0 L191,0 L191,0 C196.52285,0 201,4.47715 201,10 L201,28 L101,28 L101,10 L101,10 C101,4.47715 105.47715,0 111,0 Z" id="Rectangle-2" fill="#F59A63"></path>
                    <rect id="Rectangle-4" fill="#1C455D" x="268" y="112" width="20" height="40"></rect>
                    <path d="M194,112 L244.34676,112 L244.34676,112 C251.23812,112 257.91937,114.37256 263.26732,118.71884 L279.60938,132 L263.26732,145.28116 L263.26732,145.28116 C257.91937,149.62743 251.23812,152 244.34676,152 L194,152 L194,152 C182.95431,152 174,143.04569 174,132 L174,132 L174,132 C174,120.95431 182.95431,112 194,112 L194,112 Z" id="Rectangle-3" fill="#1C455D"></path>
                </g>
                <g id="year-text" transform="translate(194.533330, 123.200000)" fill="#FFFFFF">
                    <path d="M42.89998,16.8 L42.89998,14.3 C43.89998,13.40001 44.79999,12.5 45.69999,11.69999 C46.49999,10.90001 47.19999,10.19999 47.79999,9.5 C48.49999,8.8 48.99999,8.1 49.29999,7.5 C49.69999,6.8 49.89998,6.19999 49.89998,5.69999 C49.89998,4.90001 49.69999,4.40001 49.29999,4 C48.89998,3.69999 48.39998,3.5 47.79999,3.5 C47.29999,3.5 46.79999,3.6 46.39998,4 C45.89998,4.3 45.49999,4.6 45.1,5 L42.69999,2.7 C43.19999,2.2 43.6,1.8 43.99999,1.5 C44.39998,1.1 44.89998,0.9 45.29999,0.6 C45.79999,0.4 46.29999,0.3 46.79999,0.2 C47.29999,0.1 47.79999,2.84217094e-14 48.39998,2.84217094e-14 C49.29999,2.84217094e-14 49.99999,0.1 50.69999,0.4 C51.39998,0.7 51.99999,1 52.49999,1.5 C52.99999,2 53.39998,2.5 53.69999,3.19999 C53.99999,3.90001 54.1,4.6 54.1,5.40001 C54.1,6.1 53.99999,6.69999 53.69999,7.40001 C53.39998,8.1 52.99999,8.8 52.6,9.5 C52.1,10.1 51.6,10.8 51.1,11.40001 C50.49999,12.1 49.89998,12.69999 49.39998,13.3 C49.79999,13.19999 50.29999,13.19999 50.79999,13.1 C51.29999,13.1 51.79999,13.1 52.1,13.1 L54.89998,13.1 L54.89998,16.8 L42.89998,16.8 L42.89998,16.8 Z" id="2"></path>
                    <path d="M28.69999,16.8 L28.69999,14.3 C29.69999,13.40001 30.6,12.5 31.5,11.69999 C32.3,10.90001 33,10.19999 33.6,9.5 C34.3,8.8 34.8,8.1 35.1,7.5 C35.5,6.8 35.69999,6.19999 35.69999,5.69999 C35.69999,4.90001 35.5,4.40001 35.1,4 C34.69999,3.69999 34.19999,3.5 33.6,3.5 C33.1,3.5 32.6,3.6 32.19999,4 C31.69999,4.3 31.3,4.6 30.90001,5 L28.5,2.7 C29,2.2 29.40001,1.8 29.8,1.5 C30.19999,1.1 30.69999,0.9 31.1,0.6 C31.6,0.4 32.1,0.3 32.6,0.2 C33.1,0.1 33.6,2.84217094e-14 34.19999,2.84217094e-14 C35.1,2.84217094e-14 35.8,0.1 36.5,0.4 C37.19999,0.7 37.8,1 38.3,1.5 C38.8,2 39.19999,2.5 39.5,3.19999 C39.8,3.90001 39.90001,4.6 39.90001,5.40001 C39.90001,6.1 39.8,6.69999 39.5,7.40001 C39.19999,8.1 38.8,8.8 38.40001,9.5 C37.90001,10.1 37.40001,10.8 36.90001,11.40001 C36.3,12.1 35.69999,12.69999 35.19999,13.3 C35.6,13.19999 36.1,13.19999 36.6,13.1 C37.1,13.1 37.6,13.1 37.90001,13.1 L40.69999,13.1 L40.69999,16.8 L28.69999,16.8 L28.69999,16.8 Z" id="2"></path>
                    <path d="M20.40001,0 C21.3,0 22.1,0.2 22.8,0.5 C23.6,0.9 24.19999,1.4 24.8,2.1 C25.3,2.8 25.8,3.69999 26.1,4.8 C26.3,5.8 26.5,7.1 26.5,8.5 C26.5,9.90001 26.3,11.1 26.1,12.19999 C25.8,13.3 25.3,14.19999 24.8,14.90001 C24.19999,15.6 23.6,16.19999 22.8,16.6 C22.1,16.90001 21.3,17.1 20.40001,17.1 C19.40001,17.1 18.6,16.90001 17.90001,16.6 C17.1,16.19999 16.5,15.6 15.90001,14.90001 C15.40001,14.19999 15,13.3 14.69999,12.19999 C14.40001,11.1 14.19999,9.90001 14.19999,8.5 C14.19999,7.1 14.40001,5.8 14.69999,4.8 C15,3.69999 15.40001,2.8 15.90001,2.1 C16.5,1.4 17.1,0.9 17.90001,0.5 C18.6,0.2 19.40001,0 20.40001,0 Z M20.40001,3.40001 C20.1,3.40001 19.90001,3.5 19.6,3.6 C19.40001,3.69999 19.19999,4 19,4.3 C18.8,4.69999 18.69999,5.19999 18.6,5.90001 C18.5,6.5 18.40001,7.40001 18.40001,8.5 C18.40001,9.6 18.5,10.5 18.6,11.1 C18.69999,11.8 18.8,12.3 19,12.69999 C19.19999,13.1 19.40001,13.40001 19.6,13.5 C19.90001,13.6 20.1,13.69999 20.40001,13.69999 C20.6,13.69999 20.90001,13.6 21.1,13.5 C21.3,13.40001 21.5,13.1 21.69999,12.69999 C21.90001,12.3 22,11.8 22.1,11.1 C22.19999,10.5 22.3,9.6 22.3,8.5 C22.3,7.40001 22.19999,6.5 22.1,5.90001 C22,5.19999 21.90001,4.69999 21.69999,4.3 C21.5,4 21.3,3.69999 21.1,3.6 C20.90001,3.5 20.6,3.40001 20.40001,3.40001 Z" id="0"></path>
                    <path d="M0.19999,16.8 L0.19999,14.3 C1.19999,13.40001 2.1,12.5 3,11.69999 C3.8,10.90001 4.5,10.19999 5.1,9.5 C5.8,8.8 6.3,8.1 6.6,7.5 C7,6.8 7.19999,6.19999 7.19999,5.69999 C7.19999,4.90001 7,4.40001 6.6,4 C6.19999,3.69999 5.69999,3.5 5.1,3.5 C4.6,3.5 4.1,3.6 3.69999,4 C3.19999,4.3 2.8,4.6 2.40001,5 L0,2.7 C0.5,2.2 0.90001,1.8 1.3,1.5 C1.69999,1.1 2.19999,0.9 2.6,0.6 C3.1,0.4 3.6,0.3 4.1,0.2 C4.6,0.1 5.1,2.84217094e-14 5.69999,2.84217094e-14 C6.6,2.84217094e-14 7.3,0.1 8,0.4 C8.69999,0.7 9.3,1 9.8,1.5 C10.3,2 10.69999,2.5 11,3.19999 C11.3,3.90001 11.40001,4.6 11.40001,5.40001 C11.40001,6.1 11.3,6.69999 11,7.40001 C10.69999,8.1 10.3,8.8 9.90001,9.5 C9.40001,10.1 8.90001,10.8 8.40001,11.40001 C7.8,12.1 7.19999,12.69999 6.69999,13.3 C7.1,13.19999 7.6,13.19999 8.1,13.1 C8.6,13.1 9.1,13.1 9.40001,13.1 L12.19999,13.1 L12.19999,16.8 L0.19999,16.8 L0.19999,16.8 Z" id="2"></path>
                </g>
            </g>
        </g>
    </g>
</svg>
